**kern	**kern	**dynam
*part1	*part1	*part1
*staff2	*staff1	*
*I"Piano	*	*
*clefF4	*clefG2	*
*k[b-e-a-d-]	*k[b-e-a-d-]	*
=1	=1	=1
12GGL	12r	.
12G 12B- 12d-	12fL 12b- 12dd-	.
12GJ 12B- 12d-	12fJ 12b- 12dd-	.
8GL 8B- 8d-	8fL 8b- 8dd-	.
8GJ 8B- 8d-	8fJ 8b- 8dd-	.
8CL	8r	.
!	!LO:TX:a:t=rit.	!
8GJ 8B- 8c	8en 8b- 8cc	.
=	=	=
12FFL	12r	.
12F 12c	12fL 12a-	.
12FJ 12c	12fJ 12a-	.
8FL 8c	8fL 8a-	.
8FJ 8c	8fJ 8a-	.
8BBB-L	8r	.
8BB-J 8A-	8d- 8f-X 8a-	.
=	=	=
12EE-L	12r	.
!	!LO:TX:b:i:t=dim.	!
12E- 12G	12d-L 12e- 12b-	.
12E-J 12G	12d-J 12e- 12b-	.
8E-L 8G	8d-L 8e- 8b-	.
8E- 8G	8d- 8e- 8b-	.
8E- 8F	8d- 8e- 8a-	.
8E-J 8A-	8d-J 8e- 8cc	.
=	=	=
*	*^	*
12EE-L	4cc	12rg	.
12E- 12A-	.	12d-L 12e-	.
12E-J 12A-	.	12d-J 12e-	.
8E-L 8G	8e-L 8b-	8d-	.
8E- 8B-	8d- 8e- 8g	8reyy	.
8E- 8A-	8d- 8f	4reyy	.
8E-J 8c	8d-J 8a-	.	.
=	=	=	=
*^	*	*	*
12EE-L	4rAyy	4a-	12rg	.
12E- 12c	.	.	12d-L	.
12E-J 12c	.	.	12d-J	.
4E- 4B-	4rBByy	8g	8d-	.
.	.	8GL 8B- 8e-	8rAyy	.
4EE- 4E-	8F	8A- 8d-	4rAyy	.
.	8rAyy	8A-J 8d- 8f	.	.
*v	*v	*	*	*
=	=	=	=
*	*	*^	*
!	!	!	!	!LO:DY:a
[2.EEE- [2.EE-	2rg	([2.d- 2.f	2.A-\	pp
.	[4b-	.	.	.
*	*	*v	*v	*
=	=	=	=
2.EEE-;] 2.EE-]	2.d-;]) 2.e- 2.b-]	2.G	.
*	*v	*v	*
==	==	==
*-	*-	*-
!!!system-decoration: {(s1,s2)}
